X: 1113
T: Amoroso
R: barndance
M: 4/4
K: Eminor
|:ABcB A2 Bc|d z dcB2A2|ABcB A2 ed|c2 B2 A2 z2:|
|:e2 e2 d2 g2|e2 e2 d2 ef|g2 ba ge f2|e4 e4:|
a2 ag e2 ef|g2 fe d2 ef|g2 ba ge f2|e4 e4|
a2 ag e2 ef|g2 fe d2 AB|c2 ed cA B2|A4 A4||

